X: 25
T: Ven\'es regretz ven\'es il en est heure
N: Derived from Com3045-Venes_regretz_venes_il_en_est_heure.krn
C: Loyset Comp\`ere
%%abc-version 2.0
%%abcx-abcm2ps-target-version 5.9.1 (29 Sep 2008)
%%abc-creator hum2abc beta
%%abcx-conversion-date 2019/02/16 20:28:09
%%abc-edited-by Jesse Rodin
%%abc-edited-by Megan K. Eagen 2013/11/29
%%abcx-initial-encoding-date 2013/11/29/
%%humdrum-veritas 394251764
%%humdrum-veritas-data 3571815757
%%linebreak <none>
%%barnumbers 0
L: 1/4
M: 2/1
Q: 1/2=120
V: 1 clef=treble
V: 2 clef=treble-8
V: 3 clef=bass
K: F
[V:1] z8 | 
[V:2] c8 | 
[V:3] C,6D,2 | 
[V:1] z8 | 
[V:2] c4A4 | 
[V:3] E,4F,4 | 
[V:1] z8 | 
[V:2] G2B4AG | 
[V:3] G,6F,G, | 
[V:1] c8 | 
[V:2] F8 | 
[V:3] A,4z2A,2 | 
[V:1] c4A4 | 
[V:2] z4F4 | 
[V:3] A,2G,F,C4 | 
[V:1] G2B4AG | 
[V:2] G4B4 | 
[V:3] B,4G,4 | 
[V:1] F4z2F2 | 
[V:2] A8 | 
[V:3] D,8 | 
[V:1] G4B4 | 
[V:2] G6AB | 
[V:3] D3CB,2A,G, | 
[V:1] A4A4 | 
[V:2] c4z2c2- | 
[V:3] F,8 | 
[V:1] G2FED4 | 
[V:2] c2B4AG | 
[V:3] C,2G,3A,B,2 | 
[V:1] D4C2G2- | 
[V:2] F3GABc2 | 
[V:3] B,,4F,2C,2 | 
[V:1] G2F4E2 | 
[V:2] BAGFG4 | 
[V:3] D,4C,4 | 
[V:1] F8- | 
[V:2] F8 | 
[V:3] z4F,4 | 
[V:1] F8 | 
[V:2] z4F4 | 
[V:3] F,G,A,B,C2A,2- | 
[V:1] z8 | 
[V:2] c4c4 | 
[V:3] A,2G,F,E,4 | 
[V:1] z4F4 | 
[V:2] d4d4 | 
[V:3] D,6E,2 | 
[V:1] c4c4 | 
[V:2] c6BA | 
[V:3] F,8 | 
[V:1] d4d4 | 
[V:2] B2AGF2G2 | 
[V:3] z8 | 
[V:1] c6BA | 
[V:2] A6GF | 
[V:3] z4F,4 | 
[V:1] B2AGF4 | 
[V:2] G4A4 | 
[V:3] E,4D,2F,2 | 
[V:1] G4A4- | 
[V:2] B2c4BA | 
[V:3] E,2C,2F,4 | 
[V:1] A2GFG4 | 
[V:2] B4B4 | 
[V:3] D,4E,4 | 
[V:1] A8- | 
[V:2] A8 | 
[V:3] F,4z2F,2 | 
[V:1] A8 | 
[V:2] z4c4 | 
[V:3] F,4F,4- | 
[V:1] z4A4- | 
[V:2] c4c4 | 
[V:3] F,4z2F,2- | 
[V:1] A4A4 | 
[V:2] d8 | 
[V:3] F,2E,D,D,4 | 
[V:1] B8 | 
[V:2] d4e4 | 
[V:3] G,8 | 
[V:1] A4G2F2- | 
[V:2] f4e2d2- | 
[V:3] F,4C,2D,2- | 
[V:1] FEDCD4 | 
[V:2] dcc4=B2 | 
[V:3] D,2E,2F,2G,2 | 
[V:1] C8 | 
[V:2] c4z4 | 
[V:3] C,2F,3G,A,2- | 
[V:1] z4c4 | 
[V:2] c8 | 
[V:3] A,2G,F,E,2C,2 | 
[V:1] B3AG2A2- | 
[V:2] d4e2f2- | 
[V:3] G,6F,2 | 
[V:1] AGF2E2G2- | 
[V:2] fed2c2B2- | 
[V:3] D,E,F,G,A,2G,2- | 
[V:1] G2F4E2 | 
[V:2] BAF2G4 | 
[V:3] G,2A,2B,4 | 
[V:1] F4c4 | 
[V:2] F4A4 | 
[V:3] B,,2D,2C,2F,2 | 
[V:1] B2A4GF | 
[V:2] G2F4ED | 
[V:3] G,2A,4B,2 | 
[V:1] E8- | 
[V:2] C8- | 
[V:3] C2G,2A,4 | 
[V:1] E8 ||  
[V:2] C8 ||  
[V:3] G,8 ||  
[V:1]  [K:F] [K:clef=treble][M:2/1]z8 | 
[V:2]  [K:F] [K:clef=treble-8][M:2/1]c8 | 
[V:3]  [K:F] [K:clef=bass][M:2/1]F,8 | 
[V:1] z8 | 
[V:2] B4B4 | 
[V:3] G,8 | 
[V:1] F8 | 
[V:2] A4d4- | 
[V:3] D,4D,E,F,G, | 
[V:1] E4E4 | 
[V:2] d2^c=B^c4 | 
[V:3] A,4z2A,2 | 
[V:1] D4G4- | 
[V:2] d3cB2AG | 
[V:3] B,3A,G,2F,E, | 
[V:1] G2^FEF4 | 
[V:2] A4A4 | 
[V:3] D,4z2D,2 | 
[V:1] G3FE2DC | 
[V:2] G4c4- | 
[V:3] _E,3D,C,2B,,A,, | 
[V:1] D4D4 | 
[V:2] c2=BA=B4 | 
[V:3] G,,4z2G,2 | 
[V:1] C4F4- | 
[V:2] c3BA2GF | 
[V:3] A,3G,F,2E,D, | 
[V:1] F2EDE4 | 
[V:2] G8 | 
[V:3] C,4z2C,2 | 
[V:1] F3EF2E2- | 
[V:2] F3GA2G2- | 
[V:3] D,4A,,2C,2- | 
[V:1] E2D4^C2 | 
[V:2] GFD2E4 | 
[V:3] C,2B,,2A,,4 | 
[V:1] D8 | 
[V:2] D4z2D2 | 
[V:3] z4B,,4- | 
[V:1] z4D4 | 
[V:2] F4G4 | 
[V:3] B,,4B,,4 | 
[V:1] C4C4 | 
[V:2] A8 | 
[V:3] A,,8 | 
[V:1] F8 | 
[V:2] z4A4 | 
[V:3] D,8 | 
[V:1] z4F4 | 
[V:2] A4A4 | 
[V:3] D,8 | 
[V:1] G4G4 | 
[V:2] G4G4 | 
[V:3] E,8 | 
[V:1] A4G2A2- | 
[V:2] F4E2F2- | 
[V:3] D,4z2D,2- | 
[V:1] A2GFE4- | 
[V:2] F2EDC2G2 | 
[V:3] D,E,F,2G,2B,2 | 
[V:1] E2DCD4 | 
[V:2] A2c4=B2 | 
[V:3] A,4G,4 | 
[V:1] C2G2A2c2- | 
[V:2] c8 | 
[V:3] z4F,4- | 
[V:1] c2BABAGF | 
[V:2] c4d4 | 
[V:3] F,4D,4 | 
[V:1] E3FG2A2- | 
[V:2] c3de2f2- | 
[V:3] A,4G,2F,2 | 
[V:1] AGABA2G2- | 
[V:2] fed2cBc2 | 
[V:3] D,3E,F,2C,2 | 
[V:1] G2F4E2 | 
[V:2] BAGFG4 | 
[V:3] D,4C,4 | 
[V:1] F8 |]  
[V:2] F8 |]  
[V:3] F,8 |]  



